icons/svg/xbox.svg

﻿<?xml version="1.0" encoding="utf-8"?>
<!DOCTYPE svg PUBLIC "-//W3C//DTD SVG 1.1//EN" "http://www.w3.org/Graphics/SVG/1.1/DTD/svg11.dtd">
<svg xmlns="http://www.w3.org/2000/svg" xmlns:xlink="http://www.w3.org/1999/xlink" version="1.1" baseProfile="full" width="24" height="24" viewBox="0 0 24.00 24.00" enable-background="new 0 0 24.00 24.00" xml:space="preserve">
	<path fill="#000000" fill-opacity="1" stroke-linejoin="round" d="M 6.4262,3.72253C 6.48353,3.66229 6.5671,3.5972 6.61957,3.5632C 8.18404,2.546 9.99436,2 12.0019,2C 13.8774,2 15.6391,2.51977 17.1385,3.41941C 17.2483,3.48353 17.5437,3.68853 17.6962,3.87506C 16.2493,2.27689 11.9913,5.70349 11.9913,5.70349C 10.5181,4.56874 9.16646,3.7954 8.15684,3.52142C 7.31435,3.2902 6.73035,3.47965 6.45632,3.6963 Z M 19.3394,5.20703C 19.2938,5.15749 19.2442,5.11182 19.1995,5.06227C 18.8351,4.66006 18.3832,4.56194 17.981,4.58817C 17.6088,4.70572 15.9044,5.3207 13.8016,7.30555C 13.8016,7.30555 16.1667,9.60517 17.6166,11.9582C 19.0664,14.3113 19.9312,16.1591 19.4006,18.725C 21.0137,16.949 22,14.5921 22,12C 22,9.37783 20.9904,6.99077 19.3394,5.20703 Z M 15.7256,12.9638C 15.0804,12.2429 14.1281,11.2101 12.8639,9.95395C 12.5908,9.68095 12.2983,9.39629 11.9913,9.09997C 11.9913,9.09997 11.5316,9.55951 10.9321,10.1667C 10.1615,10.941 9.16646,11.9543 8.61257,12.5421C 7.62919,13.5933 4.80925,16.8917 4.64989,18.7395C 4.64989,18.7395 4.02313,17.2754 5.40103,13.8935C 6.30085,11.6813 9.01875,8.36063 10.1537,7.27835C 10.1537,7.27835 9.11787,6.13679 7.81576,5.35082L 7.77009,5.3207C 7.14333,4.94861 6.46021,4.66006 5.80332,4.62217C 5.13186,4.66783 4.70722,5.16137 4.70722,5.16137C 3.02517,6.949 2,9.35451 2,12C 2,17.5212 6.47964,22 12.0019,22C 14.9327,22 17.5709,20.736 19.4006,18.7288C 19.4006,18.725 19.1917,17.4037 17.8439,15.514C 17.5291,15.07 16.3708,13.6885 15.7256,12.9638 Z "/>
</svg>

<svg xmlns="http://www.w3.org/2000/svg" version="1.1" baseProfile="full" width="24" height="24" viewBox="0 0 24.00 24.00" xml:space="preserve"><path fill="#000" fill-opacity="1" stroke-linejoin="round" d="M6.426 3.723c.058-.06.14-.126.194-.16C8.184 2.546 9.994 2 12.002 2c1.875 0 3.637.52 5.136 1.42.11.064.406.27.558.455-1.447-1.598-5.705 1.828-5.705 1.828C10.52 4.57 9.167 3.795 8.158 3.52c-.843-.23-1.427-.04-1.7.176zM19.34 5.207c-.046-.05-.096-.095-.14-.145-.365-.402-.817-.5-1.22-.474-.37.118-2.076.733-4.178 2.718 0 0 2.365 2.3 3.815 4.652 1.45 2.353 2.314 4.2 1.784 6.767C21.015 16.95 22 14.592 22 12c0-2.622-1.01-5.01-2.66-6.793zm-3.614 7.757c-.646-.72-1.598-1.754-2.862-3.01-.273-.273-.566-.558-.873-.854 0 0-.458.46-1.058 1.067-.77.774-1.766 1.787-2.32 2.375-.983 1.05-3.803 4.35-3.962 6.197 0 0-.627-1.465.75-4.846.9-2.213 3.62-5.533 4.754-6.616 0 0-1.036-1.14-2.338-1.927l-.046-.03c-.627-.37-1.31-.66-1.967-.698-.67.046-1.096.54-1.096.54C3.025 6.948 2 9.354 2 12c0 5.52 4.48 10 10.002 10 2.93 0 5.57-1.264 7.4-3.27 0-.005-.21-1.326-1.558-3.216-.315-.444-1.473-1.825-2.118-2.55z"/></svg>
